img/svg/fire.svg

<svg width="14" height="14" viewBox="0 0 14 14" fill="none" xmlns="http://www.w3.org/2000/svg">
<mask id="mask0_8410_16243" style="mask-type:alpha" maskUnits="userSpaceOnUse" x="2" y="0" width="10" height="13">
<path d="M11.4223 5.7834C11.1679 5.20518 10.8037 4.69283 10.3404 4.26239L9.96065 3.90979C9.90454 3.85967 9.81585 3.88205 9.79104 3.95341L9.62144 4.44584C9.51562 4.7548 9.3213 5.07027 9.04588 5.38069C9.03189 5.39599 9.01276 5.40538 8.99234 5.40712C8.97164 5.409 8.95122 5.40177 8.93623 5.38733C8.91795 5.37158 8.90882 5.34775 8.91025 5.32392C8.9585 4.52903 8.72364 3.6326 8.20934 2.65701C7.78386 1.84639 7.19277 1.21386 6.45403 0.773004L5.91504 0.452049C5.84451 0.40972 5.75455 0.46519 5.75841 0.548389L5.78711 1.18207C5.80667 1.61513 5.75712 1.99805 5.63962 2.31627C5.49599 2.70569 5.28981 3.06752 5.02625 3.39224C4.84092 3.61931 4.63346 3.824 4.40644 4.00094C3.85703 4.42734 3.40414 4.98317 3.09745 5.60501C2.78819 6.23364 2.625 6.93738 2.625 7.64242C2.625 8.26556 2.74636 8.86887 2.98651 9.43803C3.21881 9.98594 3.5502 10.4798 3.97182 10.9021C4.39459 11.3246 4.88532 11.6573 5.43216 11.8884C5.99856 12.1286 6.59895 12.2501 7.21889 12.2501C7.83869 12.2501 8.43907 12.1286 9.00547 11.8897C9.55233 11.6586 10.0443 11.3272 10.4658 10.9035C10.8886 10.4809 11.2202 9.98722 11.451 9.43922C11.6912 8.87025 11.8125 8.26672 11.8125 7.64372C11.8125 6.99934 11.682 6.37361 11.4223 5.7834Z" fill="#F48E2F"/>
</mask>
<g mask="url(#mask0_8410_16243)">
<path d="M11.4223 5.7834C11.1679 5.20518 10.8037 4.69283 10.3404 4.26239L9.96065 3.90979C9.90454 3.85967 9.81585 3.88205 9.79104 3.95341L9.62144 4.44584C9.51562 4.7548 9.3213 5.07027 9.04588 5.38069C9.03189 5.39599 9.01276 5.40538 8.99234 5.40712C8.97164 5.409 8.95122 5.40177 8.93623 5.38733C8.91795 5.37158 8.90882 5.34775 8.91025 5.32392C8.9585 4.52903 8.72364 3.6326 8.20934 2.65701C7.78386 1.84639 7.19277 1.21386 6.45403 0.773004L5.91504 0.452049C5.84451 0.40972 5.75455 0.46519 5.75841 0.548389L5.78711 1.18207C5.80667 1.61513 5.75712 1.99805 5.63962 2.31627C5.49599 2.70569 5.28981 3.06752 5.02625 3.39224C4.84092 3.61931 4.63346 3.824 4.40644 4.00094C3.85703 4.42734 3.40414 4.98317 3.09745 5.60501C2.78819 6.23364 2.625 6.93738 2.625 7.64242C2.625 8.26556 2.74636 8.86887 2.98651 9.43803C3.21881 9.98594 3.5502 10.4798 3.97182 10.9021C4.39459 11.3246 4.88532 11.6573 5.43216 11.8884C5.99856 12.1286 6.59895 12.2501 7.21889 12.2501C7.83869 12.2501 8.43907 12.1286 9.00547 11.8897C9.55233 11.6586 10.0443 11.3272 10.4658 10.9035C10.8886 10.4809 11.2202 9.98722 11.451 9.43922C11.6912 8.87025 11.8125 8.26672 11.8125 7.64372C11.8125 6.99934 11.682 6.37361 11.4223 5.7834Z" fill="#F48E2F"/>
<g filter="url(#filter0_f_8410_16243)">
<path d="M4.37614 11.249C4.40516 12.1746 4.91536 12.9613 5.62776 13.4087L8.04674 13.5625C9.03811 13.1002 9.69247 12.0208 9.61945 10.8472C9.57639 10.1677 9.19819 9.51984 8.7891 9.07242C8.54196 10.7857 7.65356 10.9861 7.65356 10.9861C7.65356 10.9861 8.16376 9.86012 8.23584 8.61012C8.27984 8.11607 8.24988 7.59028 8.10478 7.06548C7.63858 5.29067 6.83725 4.8125 6.83725 4.8125C6.83725 4.8125 7.09937 5.84623 6.13889 7.5129C5.46768 8.67163 4.33402 9.51984 4.37614 11.249Z" fill="url(#paint0_linear_8410_16243)"/>
</g>
<path d="M4.37614 11.249C4.40516 12.1746 4.91536 12.9613 5.62776 13.4087L8.04674 13.5625C9.03811 13.1002 9.69247 12.0208 9.61945 10.8472C9.57639 10.1677 9.19819 9.51984 8.7891 9.07242C8.54196 10.7857 7.65356 10.9861 7.65356 10.9861C7.65356 10.9861 8.16376 9.86012 8.23584 8.61012C8.27984 8.11607 8.24988 7.59028 8.10478 7.06548C7.63858 5.29067 6.83725 4.8125 6.83725 4.8125C6.83725 4.8125 7.09937 5.84623 6.13889 7.5129C5.46768 8.67163 4.33402 9.51984 4.37614 11.249Z" fill="white"/>
<g filter="url(#filter1_f_8410_16243)">
<path d="M4.37614 11.249C4.40516 12.1746 4.91536 12.9613 5.62776 13.4087L8.04674 13.5625C9.03811 13.1002 9.69247 12.0208 9.61945 10.8472C9.57639 10.1677 9.19819 9.51984 8.7891 9.07242C8.54196 10.7857 7.65356 10.9861 7.65356 10.9861C7.65356 10.9861 8.16376 9.86012 8.23584 8.61012C8.27984 8.11607 8.24988 7.59028 8.10478 7.06548C7.63858 5.29067 6.83725 4.8125 6.83725 4.8125C6.83725 4.8125 7.09937 5.84623 6.13889 7.5129C5.46768 8.67163 4.33402 9.51984 4.37614 11.249Z" fill="url(#paint1_linear_8410_16243)"/>
</g>
<g filter="url(#filter2_f_8410_16243)">
<circle cx="7" cy="5.6875" r="0.875" fill="#FFFBE0"/>
</g>
<path d="M7 7.71338C6.5625 9.90088 6.125 10.3384 4.8125 11.6509L6.125 12.9634C7.14583 12.8175 9.1875 12.7884 9.1875 12.0884C9.1875 10.3384 7.875 8.15088 7 7.71338Z" fill="#FFFCEF"/>
</g>
<defs>
<filter id="filter0_f_8410_16243" x="2.375" y="2.8125" width="9.25" height="12.75" filterUnits="userSpaceOnUse" color-interpolation-filters="sRGB">
<feFlood flood-opacity="0" result="BackgroundImageFix"/>
<feBlend mode="normal" in="SourceGraphic" in2="BackgroundImageFix" result="shape"/>
<feGaussianBlur stdDeviation="1" result="effect1_foregroundBlur_8410_16243"/>
</filter>
<filter id="filter1_f_8410_16243" x="2.375" y="2.8125" width="9.25" height="12.75" filterUnits="userSpaceOnUse" color-interpolation-filters="sRGB">
<feFlood flood-opacity="0" result="BackgroundImageFix"/>
<feBlend mode="normal" in="SourceGraphic" in2="BackgroundImageFix" result="shape"/>
<feGaussianBlur stdDeviation="1" result="effect1_foregroundBlur_8410_16243"/>
</filter>
<filter id="filter2_f_8410_16243" x="3.125" y="1.8125" width="7.75" height="7.75" filterUnits="userSpaceOnUse" color-interpolation-filters="sRGB">
<feFlood flood-opacity="0" result="BackgroundImageFix"/>
<feBlend mode="normal" in="SourceGraphic" in2="BackgroundImageFix" result="shape"/>
<feGaussianBlur stdDeviation="1.5" result="effect1_foregroundBlur_8410_16243"/>
</filter>
<linearGradient id="paint0_linear_8410_16243" x1="7" y1="4.8125" x2="7" y2="13.5625" gradientUnits="userSpaceOnUse">
<stop stop-color="#FFF88B"/>
<stop offset="1" stop-color="#FFF103" stop-opacity="0"/>
</linearGradient>
<linearGradient id="paint1_linear_8410_16243" x1="7" y1="4.8125" x2="7" y2="13.5625" gradientUnits="userSpaceOnUse">
<stop stop-color="#FFFBBF"/>
<stop offset="1" stop-color="#FF9A03" stop-opacity="0"/>
</linearGradient>
</defs>
</svg>

<svg width="14" height="14" viewBox="0 0 14 14" fill="none" xmlns="http://www.w3.org/2000/svg"><mask id="mask0_8410_16243" style="mask-type:alpha" maskUnits="userSpaceOnUse" x="2" y="0" width="10" height="13"><path d="M11.422 5.783a4.586 4.586 0 00-1.082-1.52l-.38-.353a.105.105 0 00-.169.043l-.17.493c-.105.309-.3.624-.575.935a.082.082 0 01-.054.026.071.071 0 01-.056-.02.077.077 0 01-.026-.063c.049-.795-.186-1.691-.7-2.667-.426-.81-1.017-1.443-1.756-1.884L5.915.452c-.07-.042-.16.013-.157.096l.03.634c.019.433-.03.816-.148 1.134-.144.39-.35.752-.614 1.076a3.884 3.884 0 01-.62.609 4.644 4.644 0 00-1.309 1.604 4.637 4.637 0 00-.11 3.833 4.612 4.612 0 002.445 2.45c.567.24 1.167.362 1.787.362a4.57 4.57 0 003.247-1.347 4.589 4.589 0 001.347-3.26 4.6 4.6 0 00-.39-1.86z" fill="#F48E2F"/></mask><g mask="url(#mask0_8410_16243)"><path d="M11.422 5.783a4.586 4.586 0 00-1.082-1.52l-.38-.353a.105.105 0 00-.169.043l-.17.493c-.105.309-.3.624-.575.935a.082.082 0 01-.054.026.071.071 0 01-.056-.02.077.077 0 01-.026-.063c.049-.795-.186-1.691-.7-2.667-.426-.81-1.017-1.443-1.756-1.884L5.915.452c-.07-.042-.16.013-.157.096l.03.634c.019.433-.03.816-.148 1.134-.144.39-.35.752-.614 1.076a3.884 3.884 0 01-.62.609 4.644 4.644 0 00-1.309 1.604 4.637 4.637 0 00-.11 3.833 4.612 4.612 0 002.445 2.45c.567.24 1.167.362 1.787.362a4.57 4.57 0 003.247-1.347 4.589 4.589 0 001.347-3.26 4.6 4.6 0 00-.39-1.86z" fill="#F48E2F"/><g filter="url(#filter0_f_8410_16243)"><path d="M4.376 11.249c.03.926.54 1.712 1.252 2.16l2.419.153c.991-.462 1.645-1.541 1.572-2.715-.043-.68-.42-1.327-.83-1.775-.247 1.714-1.135 1.914-1.135 1.914s.51-1.126.582-2.376a4.343 4.343 0 00-.131-1.545c-.466-1.774-1.268-2.253-1.268-2.253s.262 1.034-.698 2.7c-.671 1.16-1.805 2.008-1.763 3.737z" fill="url(#paint0_linear_8410_16243)"/></g><path d="M4.376 11.249c.03.926.54 1.712 1.252 2.16l2.419.153c.991-.462 1.645-1.541 1.572-2.715-.043-.68-.42-1.327-.83-1.775-.247 1.714-1.135 1.914-1.135 1.914s.51-1.126.582-2.376a4.343 4.343 0 00-.131-1.545c-.466-1.774-1.268-2.253-1.268-2.253s.262 1.034-.698 2.7c-.671 1.16-1.805 2.008-1.763 3.737z" fill="#fff"/><g filter="url(#filter1_f_8410_16243)"><path d="M4.376 11.249c.03.926.54 1.712 1.252 2.16l2.419.153c.991-.462 1.645-1.541 1.572-2.715-.043-.68-.42-1.327-.83-1.775-.247 1.714-1.135 1.914-1.135 1.914s.51-1.126.582-2.376a4.343 4.343 0 00-.131-1.545c-.466-1.774-1.268-2.253-1.268-2.253s.262 1.034-.698 2.7c-.671 1.16-1.805 2.008-1.763 3.737z" fill="url(#paint1_linear_8410_16243)"/></g><g filter="url(#filter2_f_8410_16243)"><circle cx="7" cy="5.688" r=".875" fill="#FFFBE0"/></g><path d="M7 7.713c-.438 2.188-.875 2.625-2.188 3.938l1.313 1.312c1.02-.145 3.063-.175 3.063-.875 0-1.75-1.313-3.937-2.188-4.375z" fill="#FFFCEF"/></g><defs><filter id="filter0_f_8410_16243" x="2.375" y="2.813" width="9.25" height="12.75" filterUnits="userSpaceOnUse" color-interpolation-filters="sRGB"><feFlood flood-opacity="0" result="BackgroundImageFix"/><feBlend in="SourceGraphic" in2="BackgroundImageFix" result="shape"/><feGaussianBlur stdDeviation="1" result="effect1_foregroundBlur_8410_16243"/></filter><filter id="filter1_f_8410_16243" x="2.375" y="2.813" width="9.25" height="12.75" filterUnits="userSpaceOnUse" color-interpolation-filters="sRGB"><feFlood flood-opacity="0" result="BackgroundImageFix"/><feBlend in="SourceGraphic" in2="BackgroundImageFix" result="shape"/><feGaussianBlur stdDeviation="1" result="effect1_foregroundBlur_8410_16243"/></filter><filter id="filter2_f_8410_16243" x="3.125" y="1.813" width="7.75" height="7.75" filterUnits="userSpaceOnUse" color-interpolation-filters="sRGB"><feFlood flood-opacity="0" result="BackgroundImageFix"/><feBlend in="SourceGraphic" in2="BackgroundImageFix" result="shape"/><feGaussianBlur stdDeviation="1.5" result="effect1_foregroundBlur_8410_16243"/></filter><linearGradient id="paint0_linear_8410_16243" x1="7" y1="4.813" x2="7" y2="13.563" gradientUnits="userSpaceOnUse"><stop stop-color="#FFF88B"/><stop offset="1" stop-color="#FFF103" stop-opacity="0"/></linearGradient><linearGradient id="paint1_linear_8410_16243" x1="7" y1="4.813" x2="7" y2="13.563" gradientUnits="userSpaceOnUse"><stop stop-color="#FFFBBF"/><stop offset="1" stop-color="#FF9A03" stop-opacity="0"/></linearGradient></defs></svg>
